www/assets/icons/video_camera_front.svg

<svg xmlns="http://www.w3.org/2000/svg" width="24" height="24" viewBox="0 0 24 24" fill='currentColor'><path d="M18 10.48V6c0-1.1-.9-2-2-2H4c-1.1 0-2 .9-2 2v12c0 1.1.9 2 2 2h12c1.1 0 2-.9 2-2v-4.48l4 3.98v-11zM10 8c1.1 0 2 .9 2 2s-.9 2-2 2-2-.9-2-2 .9-2 2-2m4 8H6v-.57c0-.81.48-1.53 1.22-1.85a6.95 6.95 0 0 1 5.56 0A2.01 2.01 0 0 1 14 15.43z"/></svg>

<svg width="24" height="24" viewBox="0 0 24 24" xmlns="http://www.w3.org/2000/svg" fill='currentColor'><path d="M18 10.48V6C18 4.9 17.1 4 16 4H4C2.9 4 2 4.9 2 6V18C2 19.1 2.9 20 4 20H16C17.1 20 18 19.1 18 18V13.52L22 17.5V6.5L18 10.48ZM10 8C11.1 8 12 8.9 12 10C12 11.1 11.1 12 10 12C8.9 12 8 11.1 8 10C8 8.9 8.9 8 10 8ZM14 16H6V15.43C6 14.62 6.48 13.9 7.22 13.58C8.07 13.21 9.01 13 10 13C10.99 13 11.93 13.21 12.78 13.58C13.52 13.9 14 14.62 14 15.43V16Z"/></svg>
